polaris-icons/icons/newicons/FirstOrderMajor.svg

<svg width="20" height="20" viewBox="0 0 20 20" fill="none" xmlns="http://www.w3.org/2000/svg">
<path fill-rule="evenodd" clip-rule="evenodd" d="M4.3393 8.45686C4.74283 8.55037 4.99414 8.95329 4.90064 9.35681L4.69366 10.25H6.95943C7.75437 10.25 8.46013 10.7587 8.71151 11.5128C8.75872 11.6545 8.89127 11.75 9.04057 11.75H10.9594C11.1087 11.75 11.2413 11.6545 11.2885 11.5128C11.5399 10.7587 12.2456 10.25 13.0406 10.25H15.3063L15.0994 9.35681C15.0059 8.95329 15.2572 8.55037 15.6607 8.45686C16.0642 8.36335 16.4671 8.61467 16.5606 9.01819L16.9806 10.8307C16.9935 10.8862 17 10.943 17 11V13.25C17 15.3211 15.3211 17 13.25 17H6.75C4.67893 17 3 15.3211 3 13.25V11C3 10.943 3.00649 10.8862 3.01936 10.8307L3.43936 9.01819C3.53286 8.61467 3.93578 8.36335 4.3393 8.45686ZM15.5 11.75H13.0406C12.8913 11.75 12.7587 11.8455 12.7115 11.9872C12.4601 12.7413 11.7544 13.25 10.9594 13.25H9.04057C8.24562 13.25 7.53987 12.7413 7.28849 11.9872C7.24127 11.8455 7.10873 11.75 6.95943 11.75H4.5V13.25C4.5 14.4926 5.50736 15.5 6.75 15.5H13.25C14.4926 15.5 15.5 14.4926 15.5 13.25V11.75Z" fill="black"/>
<path fill-rule="evenodd" clip-rule="evenodd" d="M9.77609 5.16793L9.2563 9.153C9.20272 9.56373 9.49226 9.94013 9.90299 9.9937C10.3137 10.0473 10.6901 9.75774 10.7437 9.347L11.463 3.83233C11.5603 3.08637 10.712 2.59102 10.1101 3.04239L8.3 4.4C7.96863 4.64853 7.90147 5.11863 8.15 5.45C8.39853 5.78137 8.86863 5.84853 9.2 5.6L9.77609 5.16793Z" fill="black"/>
<path fill-rule="evenodd" clip-rule="evenodd" d="M14.7803 2.71967C15.0732 3.01256 15.0732 3.48744 14.7803 3.78033L14.2803 4.28033C13.9874 4.57322 13.5126 4.57322 13.2197 4.28033C12.9268 3.98744 12.9268 3.51256 13.2197 3.21967L13.7197 2.71967C14.0126 2.42678 14.4874 2.42678 14.7803 2.71967ZM16.9615 6.01283C17.0925 6.40579 16.8801 6.83053 16.4872 6.96151L14.9872 7.46151C14.5942 7.5925 14.1695 7.38013 14.0385 6.98717C13.9075 6.59421 14.1199 6.16947 14.5128 6.03849L16.0128 5.53849C16.4058 5.4075 16.8305 5.61987 16.9615 6.01283Z" fill="black"/>
<path fill-rule="evenodd" clip-rule="evenodd" d="M5.21967 2.71967C4.92677 3.01256 4.92677 3.48744 5.21967 3.78033L5.71967 4.28033C6.01256 4.57322 6.48743 4.57322 6.78033 4.28033C7.07322 3.98744 7.07322 3.51256 6.78033 3.21967L6.28033 2.71967C5.98743 2.42678 5.51256 2.42678 5.21967 2.71967ZM3.03848 6.01283C2.9075 6.40579 3.11987 6.83053 3.51283 6.96151L5.01283 7.46151C5.40578 7.5925 5.83052 7.38013 5.96151 6.98717C6.0925 6.59421 5.88013 6.16947 5.48717 6.03849L3.98717 5.53849C3.59421 5.4075 3.16947 5.61987 3.03848 6.01283Z" fill="black"/>
</svg>

<svg viewBox="0 0 20 20" fill="none" xmlns="http://www.w3.org/2000/svg"><path fill-rule="evenodd" clip-rule="evenodd" d="M4.34 8.457a.75.75 0 0 1 .56.9l-.206.893h2.265c.795 0 1.501.509 1.753 1.263.047.142.18.237.329.237h1.918c.15 0 .282-.095.33-.237a1.847 1.847 0 0 1 1.752-1.263h2.265l-.207-.893a.75.75 0 0 1 1.462-.339l.42 1.813c.012.055.019.112.019.169v2.25a3.75 3.75 0 0 1-3.75 3.75h-6.5a3.75 3.75 0 0 1-3.75-3.75v-2.25a.75.75 0 0 1 .02-.17l.42-1.812a.75.75 0 0 1 .9-.561Zm11.16 3.293h-2.46a.347.347 0 0 0-.329.237 1.847 1.847 0 0 1-1.752 1.263h-1.918c-.795 0-1.501-.509-1.753-1.263a.347.347 0 0 0-.329-.237h-2.459v1.5a2.25 2.25 0 0 0 2.25 2.25h6.5a2.25 2.25 0 0 0 2.25-2.25v-1.5Z" fill="#5C5F62"/><path fill-rule="evenodd" clip-rule="evenodd" d="m9.776 5.168-.52 3.985a.75.75 0 1 0 1.488.194l.719-5.515a.85.85 0 0 0-1.353-.79l-1.81 1.358a.75.75 0 1 0 .9 1.2l.576-.432Z" fill="#5C5F62"/><path fill-rule="evenodd" clip-rule="evenodd" d="M14.78 2.72a.75.75 0 0 1 0 1.06l-.5.5a.75.75 0 1 1-1.06-1.06l.5-.5a.75.75 0 0 1 1.06 0Zm2.182 3.293a.75.75 0 0 1-.475.949l-1.5.5a.75.75 0 0 1-.474-1.424l1.5-.5a.75.75 0 0 1 .948.475Z" fill="#5C5F62"/><path fill-rule="evenodd" clip-rule="evenodd" d="M5.22 2.72a.75.75 0 0 0 0 1.06l.5.5a.75.75 0 0 0 1.06-1.06l-.5-.5a.75.75 0 0 0-1.06 0Zm-2.182 3.293a.75.75 0 0 0 .475.949l1.5.5a.75.75 0 1 0 .474-1.424l-1.5-.5a.75.75 0 0 0-.949.475Z" fill="#5C5F62"/></svg>
